!!!!SEGMENT: pl-kk--kk-i-382--051_anonim--gaude-mater-polonia.krn
!!!cenid: 18xx:1553
!!!COM: Anonim
!!!COM-rismid: pe30004985
!!!CDT:
!!!CNT:
!!!OTL: Gaude Mater Polonia
!!!PDT:
!!!AGN: Sacred
!!!SMS-siglum: PL-Kk
!!!SMS-shelfmark: Kk.I.382
!!!SMS-shelfwork: 037 W
!!!SMS-variant:
!!!SMS-altvar:
!!!NIFC-rismid: 1001140731
!!!system-decoration: [(s1)]
**kern	**text	**dynam
*part1	*part1	*part1
*staff1	*staff1	*
*I"Basso II	*	*
*I'B.II	*	*
*clefF4	*	*
*k[]	*	*
*c:	*	*
*M2/4	*	*
*>[A,A,B,B,C,C,D,D]	*	*
=1	=1	=1
*>A	*	*
!LO:TX:a:Bi:t=N 32.:rj	!	!
!LO:TX:a:Bi:t=Andante	!	!
!	!	!LO:DY:a:t=%so:rj
4.c\	Gau-	p
8c\	-de	.
=2	=2	=2
4F\	ma-	.
8A\	-ter.	.
8A\	Po-	.
=3	=3	=3
4..c\	-lo-	.
16c\	-ni-	.
=4	=4	=4
4c\	-a	.
4r	.	.
=5	=5	=5
4c\	pro-	.
4C/	-le-	.
=6	=6	=6
8F\	-fe-	.
4F\	-cun-	.
8F\	-da	.
=7	=7	=7
4..G\	no-	.
16G\	-bi-	.
=8	=8	=8
4G\	-li	.
4r	.	.
!!LO:LB:g=original
=9	=9	=9
4.c\	sum-	.
8c\	-mi	.
=10	=10	=10
4A\	Re-	.
8G\	-gis	.
8G\	ma-	.
=11	=11	=11
4..c\	-gna-	.
16c\	-li-	.
=12	=12	=12
2B\	-a	.
=13	=13	=13
4c\	Lau-	.
8c\	-de	.
8C/	fre-	.
=14	=14	=14
4.D\	-quen-	.
8D\	-ta	.
=15	=15	=15
4..G\	vi-	.
16G\	-gi-	.
=16	=16	=16
4G\	-li	.
4r	.	.
!!LO:LB:g=original
=17:|!|:	=17:|!|:	=17:|!|:
*>B	*	*
4F\	cu-	.
8F\	-jus	.
8F\	be-	.
=18	=18	=18
(>4F\	-ni-	.
8E)\	.	.
8D\	-gna	.
=19	=19	=19
(<4C/	gra-	.
8G)\	.	.
8G\	-ti-	.
=20	=20	=20
(>4A\	-a	.
4E)\	.	.
=21	=21	=21
4F\	Sta-	.
4A\	-ni-	.
=22	=22	=22
4D\	-sla-	.
8D\	-i	.
8D\	Pon-	.
=23	=23	=23
4..G\	-ti-	.
16G\	-fi-	.
=24	=24	=24
4G\	-cis	.
4r	.	.
!!LO:LB:g=original
=25	=25	=25
4c\	Pas-	.
4c\	-si-	.
=26	=26	=26
4B\	-o-	.
8B\	-nis	.
8B\	in-	.
=27	=27	=27
4A\	-si-	.
4E\	.	.
=28	=28	=28
4F\	-gni-	.
4D\	-a	.
=29	=29	=29
4.G\	si-	.
8G\	-gnis	.
=30	=30	=30
4G\	ful-	.
8G\	-gent	.
8G\	mi-	.
=31	=31	=31
4..G\	-ri-	.
16C/	-fi-	.
=32	=32	=32
4C/	-cis	.
4r	.	.
!!LO:LB:g=original
=33:|!	=33:|!	=33:|!
*>C	*	*
*clefF4	*	*
*k[]	*	*
*M2/4	*	*
!	!	!LO:DY:a:t=%so:rj
4.c\	Er-	p
8c\	-go	.
=34	=34	=34
4F\	fe-	.
8A\	-lix	.
8A\	Cra-	.
=35	=35	=35
4..c\	-co-	.
16c\	-vi-	.
=36	=36	=36
4c\	-a	.
4r	.	.
=37	=37	=37
4c\	sa-	.
4C/	-cro	.
=38	=38	=38
8F\	do-	.
4F\	-ta-	.
8F\	-ta	.
=39	=39	=39
4..G\	cor-	.
16G\	-po-	.
=40	=40	=40
4G\	-re	.
4r	.	.
!!LO:LB:g=original
=41	=41	=41
4.c\	De-	.
8c\	-um	.
=42	=42	=42
4A\	qui	.
8G\	fe-	.
8G\	-cit	.
=43	=43	=43
4..c\	o-	.
16c\	-mni-	.
=44	=44	=44
2B\	-a	.
=45	=45	=45
4c\	be-	.
8c\	-ne-	.
8C/	-dic	.
=46	=46	=46
(4.D\	o-	.
8D\	-mni	.
=47	=47	=47
4..G\	tem-	.
16G\	-po-	.
=48	=48	=48
4G\	-re	.
4r	.	.
!!LO:LB:g=original
=49:|!|:	=49:|!|:	=49:|!|:
*>D	*	*
4F\	sit	.
8F\	Tri-	.
8F\	-ni-	.
=50	=50	=50
(>4F\	-ta	.
8E)\	.	.
8D\	ti	.
=51	=51	=51
(>4C/	glo-	.
8G)\	.	.
8G\	-ri-	.
=52	=52	=52
(>4A\	-a	.
4E)\	la-	.
=53	=53	=53
4F\	-us	.
4A\	ho-	.
=54	=54	=54
4D\	-nor	.
8D\	ju-	.
8D\	-bi-	.
=55	=55	=55
4..G\	-la-	.
16G\	-ti-	.
=56	=56	=56
4G\	-o	.
4r	.	.
!!LO:LB:g=original
=57	=57	=57
4c\	de	.
(>4c\	Mar-	.
=58	=58	=58
4B\)	-ty-	.
8B\	-ris	.
8B\	vi-	.
=59	=59	=59
(>4A\	-cto-	.
4E\)	.	.
=60	=60	=60
4F\	-ri-	.
4D\	-a	.
=61	=61	=61
4.G\	sit	.
[>8G\	no-	.
=62	=62	=62
8G\]	.	.
8G\	-bis	.
8G\	e-	.
8G\	-xul-	.
=63	=63	=63
4..G\	-ta-	.
16C/	-ti-	.
=64	=64	=64
4C/	-o.	.
4r	.	.
==:|!	==:|!	==:|!
*-	*-	*-
!!title: @{OTL};
!!!RDF**kern: > = above
!!!RDF**kern: < = below
!!!EED: Wojciech Jakubiak-Danek
!!!EST: 2021-02-10
!!!URL-scan: http://repozytorium.nifc.pl/skany/pl-kk-nut--i-382
!!!ONB-nifc: UWAGA: obsada: B2. Skan 0261
!!!ENC: Andrzej Gręziak
!!!END: 2021-01-30
